icon-themes/breeze_svg/cmd/sc_linearrowstart.svg

<svg viewBox="0 0 16 16" xmlns="http://www.w3.org/2000/svg">/&gt;<path d="m4 6-2 1.5 2 1.5v-.75-.25h7 3v-1h-3-7v-.25z" fill="#4d4d4d"/></svg>

<svg xmlns="http://www.w3.org/2000/svg" viewBox="0 0 16 16">
     />
 <path 
     style="fill:#4d4d4d" 
     d="M 4 6 L 2 7.5 L 4 9 L 4 8.25 L 4 8 L 11 8 L 14 8 L 14 7 L 11 7 L 4 7 L 4 6.75 L 4 6 z "
     />
 </svg>
